assets/gcpcontainerregistry/original.svg

<svg height="24" width="24" xmlns="http://www.w3.org/2000/svg"><g fill-rule="evenodd"><path d="m6.67 3-4.67 2.76v12.48l4.67 2.76v-2.4l-2.67-1.58v-10.04l2.67-1.58z" fill="#aecbfa"/><path d="m9.33 9.14 2.67 1.57 2.67-1.57v-3.16l-2.67-1.57-2.67 1.57z" fill="#aecbfa"/><path d="m9.33 5.98v3.16l2.67 1.57 2.67-1.57v-3.16l-2.67 1.58z" fill="#669df6"/><path d="m12 10.71 2.67-1.57v-3.16l-2.67 1.58z" fill="#4285f4"/><path d="m12.67 15.63 2.66 1.57 2.67-1.57v-3.16l-2.67-1.58-2.66 1.58z" fill="#aecbfa"/><path d="m12.67 12.47v3.16l2.66 1.57 2.67-1.57v-3.16l-2.67 1.58z" fill="#669df6"/><path d="m15.33 17.2 2.67-1.57v-3.16l-2.67 1.58z" fill="#4285f4"/><path d="m6 15.63 2.67 1.57 2.66-1.57v-3.16l-2.66-1.58-2.67 1.58z" fill="#aecbfa"/><path d="m6 12.47v3.16l2.67 1.57 2.66-1.57v-3.16l-2.66 1.58z" fill="#669df6"/><path d="m8.67 17.2 2.66-1.57v-3.16l-2.66 1.58z" fill="#4285f4"/><path d="m2 8.17v7.67l2 1.18v-10.04z" fill="#669df6"/><path d="m2 8.17 2-.46v-.73z" fill="#4285f4"/><path d="m4 17.02v-.58l-2-.6z" fill="#4285f4"/><path d="m17.33 3v2.4l2.67 1.58v10.04l-2.67 1.58v2.4l4.67-2.76v-12.48z" fill="#aecbfa"/><path d="m20 17.02 2-1.18v-7.67l-2-1.19z" fill="#669df6"/><g fill="#4285f4"><path d="m20 7.71 2 .46-2-1.19z"/><path d="m20 16.44v.58l2-1.18z"/></g></g></svg>

<svg xmlns="http://www.w3.org/2000/svg" width="24" height="24"><g fill-rule="evenodd"><path fill="#aecbfa" d="M6.67 3 2 5.76v12.48L6.67 21v-2.4L4 17.02V6.98L6.67 5.4zm2.66 6.14L12 10.71l2.67-1.57V5.98L12 4.41 9.33 5.98z"/><path fill="#669df6" d="M9.33 5.98v3.16L12 10.71l2.67-1.57V5.98L12 7.56z"/><path fill="#4285f4" d="m12 10.71 2.67-1.57V5.98L12 7.56z"/><path fill="#aecbfa" d="m12.67 15.63 2.66 1.57L18 15.63v-3.16l-2.67-1.58-2.66 1.58z"/><path fill="#669df6" d="M12.67 12.47v3.16l2.66 1.57L18 15.63v-3.16l-2.67 1.58z"/><path fill="#4285f4" d="M15.33 17.2 18 15.63v-3.16l-2.67 1.58z"/><path fill="#aecbfa" d="m6 15.63 2.67 1.57 2.66-1.57v-3.16l-2.66-1.58L6 12.47z"/><path fill="#669df6" d="M6 12.47v3.16l2.67 1.57 2.66-1.57v-3.16l-2.66 1.58z"/><path fill="#4285f4" d="m8.67 17.2 2.66-1.57v-3.16l-2.66 1.58z"/><path fill="#669df6" d="M2 8.17v7.67l2 1.18V6.98z"/><path fill="#4285f4" d="m2 8.17 2-.46v-.73zm2 8.85v-.58l-2-.6z"/><path fill="#aecbfa" d="M17.33 3v2.4L20 6.98v10.04l-2.67 1.58V21L22 18.24V5.76z"/><path fill="#669df6" d="m20 17.02 2-1.18V8.17l-2-1.19z"/><path fill="#4285f4" d="m20 7.71 2 .46-2-1.19zm0 8.73v.58l2-1.18z"/></g></svg>
